X:192
T:Double Lead Through
C:Lecoq, from "La fille de Madame Angot"
L:1/8
S:Colin Hume's website,  colinhume.com  - chords can also be printed below the stave.
Q:1/2=110
M:2/2
K:G
P:A
"G"g2d2 "D"c2A2 | "G"G2G2 GABG | "C"E2E2 "D7"F2D2 | "G"G8 | "G"g2d2 "D"c2A2 | "G"G2G2 GABG | "C"E2E2 "D7"F2D2 | "G"G8 ||
P:B
"D"A3d ^c2d2 | "/"A3d ^c2d2 | "D"A3d "A"e2A2 | "D"f8 | "D"A3d ^c2d2 | "/"A3d ^c2d2 | "A7"A2g2 f2e2 | "D7"d2=c2 B2A2 ||
P:C
|: "G"G2G2 GABG | "D"A2A2 ABcA | "G"Bcd2 "C"cde2 | "D"e2d2 d2ef |
"Em"g2g2 "C"gfe2 | "G"d2d2 dcB2 | "Am"ABc2 "G/B"Bcd2 |1 "C"egfe "D7"dcBA :|2 "D7"e2f2 "G"g4 |]

